X:66
T:Going Places
C:John Relph
N:Transcribed by Mike Stangeland
L:1/8
Q:1/4=236
M:4/4
K:F
z8 | [a4c4F4C4] [a2c2F2C2] g_a | "F"a2 fc Ac fa | (3"A7"gag e_d Ad ed | "Bb"dB FB DF Bd | 
"A"_dA E_D A,A cd | "Bb"dB cB "Bdim7"DF Bd | "F"c=B c_d "D7"=dc AF | "G7"DE FD "C7"EF GE | 
"F"FG Ac de fg | af cf Ac fa | (3"A7"gag e_d Ad ed | "Bb"dB FB DF Bd | "A"_d[e2d2E2]E [e2d2E2] cd | 
"Bb"dB cB "Bdim7"DF Bd | "F"c=B c_d "D7"=dc AF | "G7"DE FD "C7"EF GE | "F"F[AFC] z2 [A4F4C4] | 
"F"A,C FG Ac de | fg _a=a fc Ac | "Bb"BA Bc df ga | bf gb ge f_g | "G"g=B c_d =de dB | 
AG ED G3e | (3"C"gag ec (3gag ec | (3"C+"_a=a_a ec (3a=a_a ec | "F"af cf Ac fa | 
"A7"ge _de Ad ed | "Bb"dB FB DF Bd | "A"_dA E_D A,A cd | "Bb"dB cB "Bdim7"DF Bd | 
"F"c=B c_d "D7"=dc AF | "G7"DE FD "C7"EF GE | "F"F3[f3A3F3C3] g_a | a2 fc Ac fa | 
(3"A7"gag e_d Ad ed | "Bb"dB FB DF Bd | "A"_dA E_D A,A cd | "Bb"dB cB "Bdim7"DF Bd | 
"F"c=B c_d "D7"=dc AF | "G7"DE FD "C7"EF GE | "F"FG Ac de fg | af cf Ac fa | "A7"ge _de Ad ed | 
"Bb"dB FB DF Bd | "A"_dA E_D A,2 cd | "Bb"dB cB "Bdim7"DF Bd | "F"c=B c_d "D7"=dc AF | 
"G7"DE FD "C7"EF GE | "F"FA GE FD CB, | A,C FG Ac de | fg _a=a fc Ac | "Bb"BA Bc d2 (3fga | 
bf gb fe f_g | "G"g=B c_d =de dB | AG ED G4 | (3"C"gag ec (3gag ec | (3"C+"_a=a_a ec (3a=a_a ec | 
"F"[c'4e4] [a4f4] | "A7"[gd][_a_e] [=a2=e2] [e4_d4] | "Bb"dB FB DF Bd | "A"_dA E_D A,A cd | 
"Bb"dB cB "Bdim7"DF Bd | "F"c=B c_d "D7"=dc AF | "G7"DE FD "C7"EF GE | "F"F4 [f4d4F4C4] | 
z8 | z8 | 


